X: 38063
T: Spirit Of The Dance
R: jig
M: 6/8
K: Gmajor
|:G2D E2D|G2D E2D|GAB c2B|ABG FED|
G2D E2D|G2D E2D|GAB cde|dBA G3:|
|:DFA c3|B3 A3|ABc d2e|c2d B3|
GAB c3|B3 A3|cde dBG|B2A G3:|

